_includes/icons/ios-psd.svg

<svg fill="#666" height="50" viewBox="0 0 50 50" width="50" xmlns="http://www.w3.org/2000/svg"><path d="m7 2v46h36v-32.589844l-13.816406-13.410156zm2 2h19v13h13v29h-32zm21 1.578125 9.707031 9.421875h-9.707031zm-4.535156 17.886719c-2.113281 0-3.195313 1.351562-3.195313 2.972656 0 .914063.527344 1.976563 1.90625 2.816406.855469.558594 1.304688.914063 1.304688 1.652344 0 .65625-.449219 1.140625-1.382813 1.140625-.566406 0-1.257812-.167969-1.660156-.390625l-.285156 1.691406c.328125.195313 1.121094.40625 1.933594.40625 1.980468 0 3.347656-1.214843 3.347656-3.058593 0-1.066407-.496094-2.085938-1.832031-2.894532-1.09375-.660156-1.398438-.976562-1.398438-1.578125 0-.539062.40625-1.046875 1.246094-1.046875.570312 0 1.007812.164063 1.289062.34375l.316407-1.695312c-.300782-.179688-.929688-.359375-1.589844-.359375zm-7.605469.046875c-.75 0-1.5.074219-2.054687.191406v9.964844h1.964843v-3.765625h.390625c.808594 0 1.828125-.300781 2.460938-.960938.523437-.570312.851562-1.335937.851562-2.429687 0-.855469-.265625-1.695313-.867187-2.21875-.660156-.617188-1.574219-.78125-2.746094-.78125zm12.703125 0c-.777344 0-1.5.074219-1.992187.191406v9.933594c.390625.046875 1.003906.101562 1.617187.101562 1.410156 0 2.417969-.3125 3.09375-.972656.882813-.78125 1.40625-2.234375 1.40625-4.277344 0-1.964843-.449219-3.296875-1.316406-4.078125-.648438-.601562-1.53125-.898437-2.808594-.898437zm.363281 1.574219c1.183594 0 1.726563 1.257812 1.726563 3.328125 0 2.789062-.828125 3.722656-1.773438 3.722656-.105468 0-.253906 0-.34375-.03125v-6.976563c.121094-.042968.253907-.042968.390625-.042968zm-12.675781.011718c.914063 0 1.273438.691407 1.273438 1.578125 0 .945313-.449219 1.648438-1.4375 1.648438-.121094 0-.226563 0-.316407-.027344v-3.121094c.121094-.046875.300782-.078125.480469-.078125z"/></svg>

<svg xmlns="http://www.w3.org/2000/svg" viewBox="0 0 50 50" width="50" height="50" fill="#666"><path d="M 7 2 L 7 48 L 43 48 L 43 15.410156 L 29.183594 2 Z M 9 4 L 28 4 L 28 17 L 41 17 L 41 46 L 9 46 Z M 30 5.578125 L 39.707031 15 L 30 15 Z M 25.464844 23.464844 C 23.351563 23.464844 22.269531 24.816406 22.269531 26.4375 C 22.269531 27.351563 22.796875 28.414063 24.175781 29.253906 C 25.03125 29.8125 25.480469 30.167969 25.480469 30.90625 C 25.480469 31.5625 25.03125 32.046875 24.097656 32.046875 C 23.53125 32.046875 22.839844 31.878906 22.4375 31.65625 L 22.152344 33.347656 C 22.480469 33.542969 23.273438 33.753906 24.085938 33.753906 C 26.066406 33.753906 27.433594 32.539063 27.433594 30.695313 C 27.433594 29.628906 26.9375 28.609375 25.601563 27.800781 C 24.507813 27.140625 24.203125 26.824219 24.203125 26.222656 C 24.203125 25.683594 24.609375 25.175781 25.449219 25.175781 C 26.019531 25.175781 26.457031 25.339844 26.738281 25.519531 L 27.054688 23.824219 C 26.753906 23.644531 26.125 23.464844 25.464844 23.464844 Z M 17.859375 23.511719 C 17.109375 23.511719 16.359375 23.585938 15.804688 23.703125 L 15.804688 33.667969 L 17.769531 33.667969 L 17.769531 29.902344 L 18.160156 29.902344 C 18.96875 29.902344 19.988281 29.601563 20.621094 28.941406 C 21.144531 28.371094 21.472656 27.605469 21.472656 26.511719 C 21.472656 25.65625 21.207031 24.816406 20.605469 24.292969 C 19.945313 23.675781 19.03125 23.511719 17.859375 23.511719 Z M 30.5625 23.511719 C 29.785156 23.511719 29.0625 23.585938 28.570313 23.703125 L 28.570313 33.636719 C 28.960938 33.683594 29.574219 33.738281 30.1875 33.738281 C 31.597656 33.738281 32.605469 33.425781 33.28125 32.765625 C 34.164063 31.984375 34.6875 30.53125 34.6875 28.488281 C 34.6875 26.523438 34.238281 25.191406 33.371094 24.410156 C 32.722656 23.808594 31.839844 23.511719 30.5625 23.511719 Z M 30.925781 25.085938 C 32.109375 25.085938 32.652344 26.34375 32.652344 28.414063 C 32.652344 31.203125 31.824219 32.136719 30.878906 32.136719 C 30.773438 32.136719 30.625 32.136719 30.535156 32.105469 L 30.535156 25.128906 C 30.65625 25.085938 30.789063 25.085938 30.925781 25.085938 Z M 18.25 25.097656 C 19.164063 25.097656 19.523438 25.789063 19.523438 26.675781 C 19.523438 27.621094 19.074219 28.324219 18.085938 28.324219 C 17.964844 28.324219 17.859375 28.324219 17.769531 28.296875 L 17.769531 25.175781 C 17.890625 25.128906 18.070313 25.097656 18.25 25.097656 Z"/></svg>
